X:693
%%etbk:tnset id:426,pos:3,rep:3x,ant:
%%etbk:wsite https://thesession.org/tunes/201
%%etbk:color #ffffcc
%%etbk:pldat 2016-09-15T18:48,2016-09-11T16:58,2016-09-10T15:18,2016-09-09T18:59,2016-09-08T17:57,2016-09-07T17:32,2016-09-04T11:32,2016-09-03T10:29,2016-08-21T12:17,2016-08-12T17:29,2016-08-06T13:24,2016-08-02T16:26,2016-07-28T18:46,2016-07-26T16:43,2015-07-18T17:25,2015-06-06T14:51,2015-05-17T14:09,2015-05-05T16:21,2015-04-20T18:48,2015-04-19T11:00
T: Johnny Doherty's
Z: Piano Box Version by Martin Fleischmann
H: Created 2015-04-11 /  Last Modified 2016-09-03
R: reel
M: 4/4
L: 1/8
K: Dmaj
!2!~F3E !2!F!1!GA!3!B|!2!A!5!d!5!d!3!c !1!d2 !2!(3efg|!3!f!1!ded !3!cABd|1 !3!c!2!A!1!G!2!E EDDE:|2 cAGE EDDg||
|:!3!fded !3!c!1!AA!4!g|!3!f!1!d!4!e!2!c dfag|!3!fded !3!cABd|1 !3!c!2!A!1!G!2!E EDDg:|2 cAGE EDDE||


